X: 21432
T: THE GARDNER LADS -- Hornpipe
C: By J. Hill
R: hornpipe
B: K\"ohler's Violin Repository, v.2, 1885 p.143 #2
F: http://www.archive.org/details/klersviolinrepos02rugg
Z: 2012 John Chambers <jc:trillian.mit.edu>
M: C|
L: 1/8
K: A
vE>uG |\
(A>B)c>A (G>A)F>G | (E>F)D>E (C>D)B,>C |\
(A,>C)E>A (F>B)d>c | BEFG A>(Bc>d) |
(3eag (3fed (3cfe (3dcB | (3Adc (3BAG E>(FG>A) |\
(B>c)d>B (A>E)F>G | (A>c)d>B A2 :||: vA>uB |
((3cBA) (a>A) (g>A) (f>A) | (e>A) (e'>A) (c'>A) (a>A) |\
(3fga (3gfe (3def (3edc | (3Bcd (3ABc (3GAB (3EFG |
(A>B)c>A (G>A)F>G | (E>F)D>E C>DB,>C |\
(A,>C)E>A (F>d)B>G | (A>E)F>A A2 :|

%%sep 2 1 500

